**kern	**kern	**dynam
*part1	*part1	*part1
*staff2	*staff1	*
*I"Piano	*	*
*clefF4	*clefG2	*
*k[f#c#g#d#]	*k[f#c#g#d#]	*
=1	=1	=1
4EEE) 4EE	16G# 16B 16e	mp
.	(16g#LL	p
.	16e	.
.	16B	.
16rBB	16G#<	.
(16C#	16EJJ< [16F#< 16A#X<	.
=	=	=
16BB)	16D#<) 16F#]< 16B<	.
16rBB	(16AnLL<	.
8rGG	16F#<	.
.	16D#JJ<	.
16qqD#/	.	.
16C#LL	8rff	.
[16BBJJ)	.	.
=	=	=
16EE 16BB]	16E< 16G#<	.
16r	(16g#LL	.
8r	16e	.
.	16B	.
16r	16G#<	.
(16C#	16EJJ< [16F#< 16A#X<	.
=	=	=
16BB)	16D#<) 16F#]< 16B<	.
16rBB	(16AnLL<	.
8rGG	16F#<	.
.	16D#JJ<	.
16qqD#/	.	.
16C#LL	8rff	.
[16BBJJ)	.	.
=	=	=
*	*^	*
16EE 16BB]	8.ryy	16E< 16G#<	.
16r	.	(16g#LL	.
16r	.	16e	.
16BLL	16bLL	(16B<	.
16G#	16g#	16G#<	.
16AJJ	16eJJ)	16AJJ<	.
=	=	=	=
*^	*	*	*
16B	16ryy	16r	16rg)yy	.
16r	16ryy	(16eLL	8ryy	.
16r	16ryy	16BJJ	.	.
*v	*v	*	*	*
(16G#LL	16g#LL	16ryy	.
*^	*	*	*
[16E	8E	[16e	8e	.
16F#JJ	.	[16BJJ)	.	.
*v	*v	*	*	*
*	*v	*v	*
=	=	=
4E]) 4G#	4B] 4e]	.
!	!	!LO:DY:a
(8E 8B	(8e 8g#	pp
=	=	=
4.EE;) 4.BB	4.G#;) 4.e	.
==	==	==
*-	*-	*-
!!!system-decoration: {(s1,s2)}
!!!RDF**kern: < = below
